X:11
T:Untitled. ET.11
M:6/8
L:1/8
Q:1/4=110
S:Eliza Tennyson MS, Lincolnshire,1822
R:Quadrille
O:England;Lincolnshire;Somersby
Z:vmp.R.Greig 2011 <http://www.village-music-project.org.uk>
K:C
G|e>dc dAB|c2AG2E|F>GA Gce|edd d2G|!
e>dc dAB|c2AG2E|F>GA Gc[eG]|edBc2||!
g|dBd G2g|eceG2g|[f2d2][fd][e2c2][ec]|eddd2g|!
dBdG2g|eceA2a|g^fe def|g3g2g|!
dBd G2g|ece G2g|f2fe2e|edd d2g|!
dBd G2g|eceA2a|g^fe def|g3g2G|!
e>dc dAB|c2AG2E|F>GA Gce|eddd2G|!
e>dc dAB|c2AG2E|F>GA Gc[eG]|edBc2||!
e|a^ga ecA|B2cd2e|fef dB^G|A3-Ace|!
a^ga ecA|B2cd2f|e^de E^F^G|A3!D.C.! A2|]

